!!!OTL: O matko milosciwa
**kern
*staff1
=--
*clefC1
*k[]
1d
1d
=-
2.c
4d
2e
1d
2c
1d
=-
2d
1e
2f
=-
2d
1d
2c
=-
!!linebreak:original
1d
1d
=-
2f
1e
1d
2c
1d
=-
!LO:TX:Y=-34:t=P
2f
1f
2f
1f
=-
2f
1e
1d
2c
0d
=-=
*-
!!title: @{OTL}, @{GTL}, ed. @{ENC}
!!!pag:
!!!GTL: Hymnbook C
!!!EFL: 
!!!YEM: Creative Commons CC/BY/NC/SA 4.0
!!!ENC: Marcin Konik
!!!END: 2015-0m-dd
!!!EED: Marcin Konik
!!!EEV: 
!!!ONB: Encoded in vim by Marcin Konik
!!!CharacterEncoding: utf-8
!!!RDF**kern: l=long note in original notation
!!!RDF**kern: i=editorial accidental
!!muse2ps: z14jc180F
!!!COM: Anonim
!!!CDT: [?]
!!!TXO: Polish
!!!ODT: 
!!!GTL: Hymnbook C
!!!ARL: Opactwo św. Wojciecha, Staniątki 
!!!voices:	1
